themes/tw/images/theory/browsers/sigma.svg

<svg xmlns="http://www.w3.org/2000/svg" viewBox="0 0 132 24"><defs><linearGradient id="a" x1="0" x2="1" y1=".678" y2=".322"><stop offset="0" stop-color="#FFA65A"/><stop offset="1" stop-color="#FF537A"/></linearGradient></defs><path d="M20.835 22.78c-4.641 1.646-9.843.36-13.12-3.243a2.697 2.697 0 0 0-1.471-.863 4.25 4.25 0 0 0-.9-.099 7.77 7.77 0 0 0-1 .061c-.233.028-.476.067-.713.103-.703.11-1.431.222-2.053.113a2.082 2.082 0 0 1-.445-.129 1.63 1.63 0 0 1-.727-.591 2.233 2.233 0 0 1-.259-.508v-.003a2.247 2.247 0 0 1-.137-.551 1.585 1.585 0 0 1 .166-.91c.072-.135.156-.262.257-.378.403-.474 1.035-.843 1.648-1.2.205-.12.417-.243.614-.367.282-.175.552-.369.807-.58a4.15 4.15 0 0 0 .624-.64 2.593 2.593 0 0 0 .558-1.583 11.535 11.535 0 0 1 2.265-6.54A12.006 12.006 0 0 1 12.595.707 12.318 12.318 0 0 1 19.667.36a12.09 12.09 0 0 1 6.048 3.59c.379.437.897.74 1.471.863.295.065.598.098.9.098.334.002.669-.018 1-.06.233-.028.476-.067.712-.103.703-.11 1.431-.223 2.053-.113.152.026.302.07.445.129a1.63 1.63 0 0 1 .726.593c.107.157.195.328.26.506v.003c.068.177.114.362.136.55a1.558 1.558 0 0 1-.166.91c-.071.134-.157.26-.256.377-.404.474-1.036.843-1.648 1.2-.205.12-.417.244-.614.369a7.196 7.196 0 0 0-.807.58c-.231.19-.441.404-.624.64a2.572 2.572 0 0 0-.558 1.583c-.127 4.815-3.267 9.063-7.913 10.705ZM14.25 5.143c-.459.163-.899.37-1.315.618a7.114 7.114 0 0 0-2.053 1.854A6.938 6.938 0 0 0 9.51 11.39a6.884 6.884 0 0 0 1.023 3.98 7.134 7.134 0 0 0 3.131 2.741 7.35 7.35 0 0 0 4.1.584 7.447 7.447 0 0 0 2.732-.968 7.123 7.123 0 0 0 2.052-1.854 6.922 6.922 0 0 0 1.372-3.775 6.771 6.771 0 0 0-.068-1.379 6.955 6.955 0 0 0-1.851-3.759c-1.973-2.069-5.027-2.785-7.749-1.816Z" fill="url(#a)"/><path d="M47.955 11.855c-.652-.478-1.429-.828-2.33-1.048l-2.626-.672a4.925 4.925 0 0 1-.407-.119h-.002c-.386-.13-.697-.293-.936-.488-.32-.261-.479-.608-.479-1.041 0-.289.092-.553.279-.791.185-.239.44-.427.767-.564a2.908 2.908 0 0 1 1.134-.207c.697 0 1.291.164 1.78.489.49.325.794.784.912 1.376l2.867-1.017c-.197-.718-.519-1.32-.964-1.812a5.002 5.002 0 0 0-2.024-1.366 7.108 7.108 0 0 0-2.437-.424c-1.009 0-1.924.188-2.747.564-.823.376-1.473.908-1.947 1.595-.475.686-.712 1.47-.712 2.352 0 1.103.317 1.969.95 2.597.032.033.063.063.095.092.697.636 1.602 1.084 2.715 1.345l2.156.543H44l.512.129c.579.145 1.035.359 1.369.64.334.282.5.661.5 1.138 0 .376-.108.709-.322.998-.216.289-.52.513-.912.672-.393.159-.857.239-1.391.239-.994 0-1.773-.227-2.336-.683-.564-.455-.905-1.074-1.024-1.855l-2.952 1.049c.17.741.476 1.396.918 1.966.569.737 1.318 1.301 2.247 1.691.925.391 1.975.586 3.147.586 1.171 0 2.15-.205 3.025-.617.875-.412 1.55-.984 2.025-1.714.474-.73.712-1.551.712-2.462 0-1.185-.367-2.118-1.101-2.797a5.664 5.664 0 0 0-.462-.384Zm82.962.384a5.664 5.664 0 0 0-.462-.384c-.652-.478-1.429-.828-2.33-1.048l-2.626-.672a4.925 4.925 0 0 1-.407-.119h-.002c-.386-.13-.697-.293-.936-.488-.32-.261-.479-.608-.479-1.041 0-.289.092-.553.279-.791.185-.239.44-.427.767-.564a2.908 2.908 0 0 1 1.134-.207c.697 0 1.291.164 1.78.489.49.325.794.784.912 1.376l2.867-1.017c-.197-.718-.519-1.32-.964-1.812a5.002 5.002 0 0 0-2.024-1.366 7.108 7.108 0 0 0-2.437-.424c-1.009 0-1.924.188-2.747.564-.823.376-1.473.908-1.947 1.595-.475.686-.712 1.47-.712 2.352 0 1.103.317 1.969.95 2.597.032.033.063.063.095.092.697.636 1.602 1.084 2.715 1.345l2.156.543h.001l.512.129c.579.145 1.035.359 1.369.64.334.282.5.661.5 1.138 0 .376-.108.709-.322.998-.216.289-.52.513-.912.672-.393.159-.857.239-1.391.239-.994 0-1.773-.227-2.336-.683-.564-.455-.905-1.074-1.024-1.855l-2.952 1.049c.17.741.476 1.396.918 1.966.569.737 1.318 1.301 2.247 1.691.925.391 1.975.586 3.147.586 1.171 0 2.15-.205 3.025-.617.875-.412 1.55-.984 2.025-1.714.474-.73.712-1.551.712-2.462 0-1.185-.367-2.118-1.101-2.797ZM51.035 7.923h2.781V19.59h-2.781Zm1.39-5.034c-.96 0-1.737.759-1.737 1.694 0 .936.777 1.695 1.737 1.695.959 0 1.738-.759 1.738-1.695 0-.935-.777-1.694-1.738-1.694Zm12.572 6.658a4.476 4.476 0 0 0-1.369-1.19c-.793-.449-1.716-.673-2.769-.673-1.053 0-2.036.25-2.904.749a5.36 5.36 0 0 0-2.034 2.049c-.49.867-.735 1.829-.735 2.884 0 1.056.245 2.017.735 2.885a5.418 5.418 0 0 0 2.046 2.06 5.674 5.674 0 0 0 2.892.759c1.053 0 1.98-.227 2.781-.683a4.514 4.514 0 0 0 1.046-.814v.673c0 .694-.145 1.287-.435 1.778a2.793 2.793 0 0 1-1.211 1.118c-.519.251-1.142.378-1.869.378-.89 0-1.621-.183-2.192-.552-.571-.368-.945-.814-1.123-1.334l-2.67.976a4.81 4.81 0 0 0 1.291 1.756c.578.506 1.278.892 2.101 1.161a8.47 8.47 0 0 0 2.637.401c1.261 0 2.362-.227 3.303-.683.942-.455 1.669-1.117 2.181-1.985.511-.867.768-1.894.768-3.079v-7.005c0-.766.025-1.427.077-1.984.052-.556.13-.98.234-1.269h-2.781Zm-.768 5.511a3.16 3.16 0 0 1-1.212 1.171 3.55 3.55 0 0 1-1.757.434 3.319 3.319 0 0 1-1.713-.444 3.306 3.306 0 0 1-1.224-1.193 3.195 3.195 0 0 1-.445-1.66c0-.607.149-1.164.445-1.67a3.193 3.193 0 0 1 1.224-1.192 3.451 3.451 0 0 1 1.713-.434 3.65 3.65 0 0 1 1.746.423c.511.282.916.676 1.213 1.182.296.506.445 1.07.445 1.691 0 .622-.146 1.2-.435 1.692Zm21.26-6.798c-.675-.383-1.449-.576-2.325-.576-.875 0-1.698.193-2.38.576a4.532 4.532 0 0 0-1.624 1.506 3.752 3.752 0 0 0-1.369-1.528c-.586-.369-1.301-.554-2.146-.554-.712 0-1.354.135-1.925.402a3.699 3.699 0 0 0-1.39 1.095c-.196.255-.36.531-.489.824V7.923h-2.47V19.59h2.781v-6.31c0-.637.114-1.179.344-1.627.23-.448.539-.788.924-1.019a2.375 2.375 0 0 1 1.246-.347c.445 0 .853.105 1.224.315.37.21.663.523.878.943.215.419.323.925.323 1.518v6.527h2.781v-6.527c0-.608.114-1.121.344-1.54.23-.419.538-.73.924-.933a2.647 2.647 0 0 1 1.246-.303c.741 0 1.33.25 1.768.749.437.498.657 1.174.657 2.027v6.527h2.781v-7.156c0-.969-.183-1.81-.546-2.526a3.859 3.859 0 0 0-1.557-1.648Zm16.154 8.077V7.923h-2.781v1.431a4.012 4.012 0 0 0-.423-.422 4.99 4.99 0 0 0-1.591-.922c-.601-.217-1.271-.326-2.013-.326a5.65 5.65 0 0 0-2.948.803 5.645 5.645 0 0 0-2.102 2.19c-.506.925-.756 1.952-.756 3.08 0 1.127.25 2.136.756 3.069a5.62 5.62 0 0 0 2.102 2.201 5.66 5.66 0 0 0 2.948.802c1.068 0 2.072-.239 2.881-.716a4.614 4.614 0 0 0 1.435-1.313v1.79h2.803c-.12-.303-.2-.733-.244-1.289a24.81 24.81 0 0 1-.067-1.964Zm-3.238-.802a3.293 3.293 0 0 1-1.256 1.258c-.534.303-1.143.455-1.824.455a3.463 3.463 0 0 1-3.026-1.735 3.472 3.472 0 0 1-.467-1.778c0-.651.156-1.222.467-1.757a3.428 3.428 0 0 1 1.279-1.268 3.5 3.5 0 0 1 1.769-.467c.638 0 1.268.157 1.802.467.534.311.952.73 1.256 1.258a3.52 3.52 0 0 1 .457 1.789c0 .665-.153 1.243-.457 1.778ZM115.516 5.19c-1.223-.679-2.585-1.019-4.083-1.019-1.498 0-2.877.34-4.093 1.019a7.554 7.554 0 0 0-2.881 2.82c-.706 1.2-1.057 2.523-1.057 3.968 0 1.446.351 2.809 1.057 4.002a7.655 7.655 0 0 0 2.881 2.82c1.216.686 2.58 1.029 4.093 1.029s2.86-.343 4.083-1.029a7.649 7.649 0 0 0 2.892-2.82c.703-1.193 1.056-2.527 1.056-4.002 0-1.474-.353-2.768-1.056-3.968a7.548 7.548 0 0 0-2.892-2.82Zm.29 9.381a4.835 4.835 0 0 1-1.826 1.831 5.009 5.009 0 0 1-2.547.673 5.03 5.03 0 0 1-2.558-.673 4.916 4.916 0 0 1-1.824-1.831c-.445-.774-.668-1.638-.668-2.593 0-.954.223-1.792.668-2.559a4.94 4.94 0 0 1 1.824-1.821 4.991 4.991 0 0 1 2.558-.673c.935 0 1.765.224 2.536.673a4.943 4.943 0 0 1 1.825 1.821c.445.767.667 1.62.667 2.559 0 .94-.219 1.819-.655 2.593Z" fill="var(--token-f9376adb-fe94-4614-8108-c32dbf90bd1c, rgba(35, 38, 43, 0.95)) /* {&quot;name&quot;:&quot;Uno&quot;} */"/></svg>

<svg xmlns="http://www.w3.org/2000/svg" xlink="http://www.w3.org/1999/xlink" viewBox="0 0 132 24" id="svg359214125"><g><defs><linearGradient id="idss359214125_1g-1621205006" x1="0" x2="1" y1="0.6783844911555117" y2="0.32161550884448825"><stop offset="0" stop-color="rgb(255,166,90)" stop-opacity="1"></stop><stop offset="1" stop-color="rgb(255,83,122)" stop-opacity="1"></stop></linearGradient></defs><path d="M 20.835 22.78 C 16.194 24.426 10.992 23.14 7.715 19.537 C 7.335 19.1 6.818 18.797 6.244 18.674 C 5.949 18.609 5.647 18.576 5.344 18.575 C 5.01 18.574 4.675 18.594 4.344 18.636 C 4.111 18.664 3.868 18.703 3.631 18.739 C 2.928 18.849 2.2 18.961 1.578 18.852 C 1.425 18.826 1.276 18.782 1.133 18.723 C 0.991 18.664 0.859 18.586 0.739 18.49 C 0.611 18.386 0.498 18.266 0.406 18.132 C 0.298 17.974 0.211 17.803 0.147 17.624 L 0.147 17.621 C 0.077 17.443 0.033 17.258 0.01 17.07 C -0.007 16.908 -0.001 16.747 0.028 16.586 C 0.056 16.439 0.107 16.294 0.176 16.16 C 0.248 16.025 0.332 15.898 0.433 15.782 C 0.836 15.308 1.468 14.939 2.081 14.582 C 2.286 14.462 2.498 14.339 2.695 14.215 C 2.977 14.04 3.247 13.846 3.502 13.635 C 3.733 13.444 3.942 13.23 4.126 12.995 C 4.484 12.541 4.679 11.984 4.684 11.412 C 4.749 9.06 5.538 6.781 6.949 4.872 C 8.36 2.963 10.327 1.512 12.595 0.707 C 14.863 -0.098 17.327 -0.219 19.667 0.36 C 22.007 0.938 24.113 2.189 25.715 3.95 C 26.094 4.387 26.612 4.69 27.186 4.813 C 27.481 4.878 27.784 4.911 28.086 4.911 C 28.42 4.913 28.755 4.893 29.086 4.851 C 29.319 4.823 29.562 4.784 29.798 4.748 C 30.501 4.638 31.229 4.525 31.851 4.635 C 32.003 4.661 32.153 4.705 32.296 4.764 C 32.438 4.823 32.57 4.901 32.69 4.997 C 32.818 5.101 32.93 5.221 33.022 5.357 C 33.129 5.514 33.217 5.685 33.282 5.863 L 33.282 5.866 C 33.35 6.043 33.396 6.228 33.418 6.416 C 33.436 6.577 33.43 6.74 33.4 6.899 C 33.372 7.047 33.322 7.191 33.252 7.326 C 33.181 7.46 33.095 7.586 32.996 7.703 C 32.592 8.177 31.96 8.546 31.348 8.903 C 31.143 9.023 30.931 9.147 30.734 9.272 C 30.452 9.447 30.182 9.64 29.927 9.852 C 29.696 10.042 29.486 10.256 29.303 10.492 C 28.944 10.946 28.748 11.502 28.745 12.075 C 28.618 16.89 25.478 21.138 20.832 22.78 Z M 14.25 5.143 C 13.791 5.306 13.351 5.513 12.935 5.761 C 12.132 6.242 11.435 6.872 10.882 7.615 C 10.06 8.718 9.583 10.029 9.51 11.39 C 9.437 12.786 9.793 14.172 10.533 15.37 C 11.273 16.568 12.364 17.522 13.664 18.111 C 14.507 18.495 15.418 18.716 16.347 18.762 C 16.82 18.785 17.295 18.762 17.764 18.695 C 18.732 18.554 19.66 18.224 20.496 17.727 C 21.298 17.246 21.995 16.616 22.548 15.873 C 23.371 14.77 23.848 13.459 23.92 12.098 C 23.944 11.637 23.922 11.176 23.852 10.719 C 23.708 9.776 23.37 8.871 22.858 8.059 C 22.61 7.666 22.323 7.298 22.001 6.96 C 20.028 4.891 16.974 4.175 14.252 5.144 Z" fill="url(#idss359214125_1g-1621205006)"></path></g><path d="M 47.955 11.855 C 47.303 11.377 46.526 11.027 45.625 10.807 L 42.999 10.135 C 42.856 10.099 42.719 10.06 42.592 10.016 L 42.59 10.016 C 42.204 9.886 41.893 9.723 41.654 9.528 C 41.334 9.267 41.175 8.92 41.175 8.487 C 41.175 8.198 41.267 7.934 41.454 7.696 C 41.639 7.457 41.894 7.269 42.221 7.132 C 42.547 6.995 42.925 6.925 43.355 6.925 C 44.052 6.925 44.646 7.089 45.135 7.414 C 45.625 7.739 45.929 8.198 46.047 8.79 L 48.914 7.773 C 48.717 7.055 48.395 6.453 47.95 5.961 C 47.379 5.332 46.704 4.877 45.926 4.595 C 45.147 4.313 44.334 4.171 43.489 4.171 C 42.48 4.171 41.565 4.359 40.742 4.735 C 39.919 5.111 39.269 5.643 38.795 6.33 C 38.32 7.016 38.083 7.8 38.083 8.682 C 38.083 9.785 38.4 10.651 39.033 11.279 C 39.065 11.312 39.096 11.342 39.128 11.371 C 39.825 12.007 40.73 12.455 41.843 12.716 L 43.999 13.259 L 44 13.259 L 44.512 13.388 C 45.091 13.533 45.547 13.747 45.881 14.028 C 46.215 14.31 46.381 14.689 46.381 15.166 C 46.381 15.542 46.273 15.875 46.059 16.164 C 45.843 16.453 45.539 16.677 45.147 16.836 C 44.754 16.995 44.29 17.075 43.756 17.075 C 42.762 17.075 41.983 16.848 41.42 16.392 C 40.856 15.937 40.515 15.318 40.396 14.537 L 37.444 15.586 C 37.614 16.327 37.92 16.982 38.362 17.552 C 38.931 18.289 39.68 18.853 40.609 19.243 C 41.534 19.634 42.584 19.829 43.756 19.829 C 44.927 19.829 45.906 19.624 46.781 19.212 C 47.656 18.8 48.331 18.228 48.806 17.498 C 49.28 16.768 49.518 15.947 49.518 15.036 C 49.518 13.851 49.151 12.918 48.417 12.239 C 48.27 12.103 48.116 11.975 47.955 11.855 Z M 130.917 12.239 C 130.77 12.103 130.616 11.975 130.455 11.855 C 129.803 11.377 129.026 11.027 128.125 10.807 L 125.499 10.135 C 125.356 10.099 125.219 10.06 125.092 10.016 L 125.09 10.016 C 124.704 9.886 124.393 9.723 124.154 9.528 C 123.834 9.267 123.675 8.92 123.675 8.487 C 123.675 8.198 123.767 7.934 123.954 7.696 C 124.139 7.457 124.394 7.269 124.721 7.132 C 125.047 6.995 125.425 6.925 125.855 6.925 C 126.552 6.925 127.146 7.089 127.635 7.414 C 128.125 7.739 128.429 8.198 128.547 8.79 L 131.414 7.773 C 131.217 7.055 130.895 6.453 130.45 5.961 C 129.879 5.332 129.204 4.877 128.426 4.595 C 127.647 4.313 126.834 4.171 125.989 4.171 C 124.98 4.171 124.065 4.359 123.242 4.735 C 122.419 5.111 121.769 5.643 121.295 6.33 C 120.82 7.016 120.583 7.8 120.583 8.682 C 120.583 9.785 120.9 10.651 121.533 11.279 C 121.565 11.312 121.596 11.342 121.628 11.371 C 122.325 12.007 123.23 12.455 124.343 12.716 L 126.499 13.259 L 126.5 13.259 L 127.012 13.388 C 127.591 13.533 128.047 13.747 128.381 14.028 C 128.715 14.31 128.881 14.689 128.881 15.166 C 128.881 15.542 128.773 15.875 128.559 16.164 C 128.343 16.453 128.039 16.677 127.647 16.836 C 127.254 16.995 126.79 17.075 126.256 17.075 C 125.262 17.075 124.483 16.848 123.92 16.392 C 123.356 15.937 123.015 15.318 122.896 14.537 L 119.944 15.586 C 120.114 16.327 120.42 16.982 120.862 17.552 C 121.431 18.289 122.18 18.853 123.109 19.243 C 124.034 19.634 125.084 19.829 126.256 19.829 C 127.427 19.829 128.406 19.624 129.281 19.212 C 130.156 18.8 130.831 18.228 131.306 17.498 C 131.78 16.768 132.018 15.947 132.018 15.036 C 132.018 13.851 131.651 12.918 130.917 12.239 Z M 51.035 7.923 L 53.816 7.923 L 53.816 19.59 L 51.035 19.59 Z M 52.425 2.889 C 51.465 2.889 50.688 3.648 50.688 4.583 C 50.688 5.519 51.465 6.278 52.425 6.278 C 53.384 6.278 54.163 5.519 54.163 4.583 C 54.163 3.648 53.386 2.889 52.425 2.889 Z M 64.997 9.547 C 64.621 9.056 64.164 8.659 63.628 8.357 C 62.835 7.908 61.912 7.684 60.859 7.684 C 59.806 7.684 58.823 7.934 57.955 8.433 C 57.088 8.932 56.41 9.614 55.921 10.482 C 55.431 11.349 55.186 12.311 55.186 13.366 C 55.186 14.422 55.431 15.383 55.921 16.251 C 56.41 17.118 57.092 17.805 57.967 18.311 C 58.842 18.817 59.806 19.07 60.859 19.07 C 61.912 19.07 62.839 18.843 63.64 18.387 C 64.033 18.163 64.382 17.893 64.686 17.573 L 64.686 18.246 C 64.686 18.94 64.541 19.533 64.251 20.024 C 63.962 20.516 63.559 20.889 63.04 21.142 C 62.521 21.393 61.898 21.52 61.171 21.52 C 60.281 21.52 59.55 21.337 58.979 20.968 C 58.408 20.6 58.034 20.154 57.856 19.634 L 55.186 20.61 C 55.468 21.275 55.898 21.86 56.477 22.366 C 57.055 22.872 57.755 23.258 58.578 23.527 C 59.401 23.795 60.281 23.928 61.215 23.928 C 62.476 23.928 63.577 23.701 64.518 23.245 C 65.46 22.79 66.187 22.128 66.699 21.26 C 67.21 20.393 67.467 19.366 67.467 18.181 L 67.467 11.176 C 67.467 10.41 67.492 9.749 67.544 9.192 C 67.596 8.636 67.674 8.212 67.778 7.923 L 64.997 7.923 Z M 64.229 15.058 C 63.94 15.549 63.536 15.94 63.017 16.229 C 62.498 16.518 61.912 16.663 61.26 16.663 C 60.607 16.663 60.066 16.515 59.547 16.219 C 59.028 15.922 58.62 15.525 58.323 15.026 C 58.027 14.527 57.878 13.973 57.878 13.366 C 57.878 12.759 58.027 12.202 58.323 11.696 C 58.62 11.19 59.028 10.793 59.547 10.504 C 60.066 10.214 60.637 10.07 61.26 10.07 C 61.883 10.07 62.494 10.212 63.006 10.493 C 63.517 10.775 63.922 11.169 64.219 11.675 C 64.515 12.181 64.664 12.745 64.664 13.366 C 64.664 13.988 64.518 14.566 64.229 15.058 Z M 85.489 8.26 C 84.814 7.877 84.04 7.684 83.164 7.684 C 82.289 7.684 81.466 7.877 80.784 8.26 C 80.102 8.643 79.56 9.145 79.16 9.766 C 78.834 9.116 78.377 8.607 77.791 8.238 C 77.205 7.869 76.49 7.684 75.645 7.684 C 74.933 7.684 74.291 7.819 73.72 8.086 C 73.149 8.354 72.686 8.718 72.33 9.181 C 72.134 9.436 71.97 9.712 71.841 10.005 L 71.841 7.923 L 69.371 7.923 L 69.371 19.59 L 72.152 19.59 L 72.152 13.28 C 72.152 12.643 72.266 12.101 72.496 11.653 C 72.726 11.205 73.035 10.865 73.42 10.634 C 73.806 10.402 74.221 10.287 74.666 10.287 C 75.111 10.287 75.519 10.392 75.89 10.602 C 76.26 10.812 76.553 11.125 76.768 11.545 C 76.983 11.964 77.091 12.47 77.091 13.063 L 77.091 19.59 L 79.872 19.59 L 79.872 13.063 C 79.872 12.455 79.986 11.942 80.216 11.523 C 80.446 11.104 80.754 10.793 81.14 10.59 C 81.526 10.388 81.941 10.287 82.386 10.287 C 83.127 10.287 83.716 10.537 84.154 11.036 C 84.591 11.534 84.811 12.21 84.811 13.063 L 84.811 19.59 L 87.592 19.59 L 87.592 12.434 C 87.592 11.465 87.409 10.624 87.046 9.908 C 86.682 9.192 86.163 8.643 85.489 8.26 Z M 101.643 16.337 L 101.643 7.923 L 98.862 7.923 L 98.862 9.354 C 98.732 9.202 98.589 9.062 98.439 8.932 C 97.98 8.534 97.449 8.227 96.848 8.01 C 96.247 7.793 95.577 7.684 94.835 7.684 C 93.767 7.684 92.784 7.952 91.887 8.487 C 90.99 9.022 90.288 9.752 89.785 10.677 C 89.279 11.602 89.029 12.629 89.029 13.757 C 89.029 14.884 89.279 15.893 89.785 16.826 C 90.288 17.759 90.99 18.492 91.887 19.027 C 92.784 19.561 93.767 19.829 94.835 19.829 C 95.903 19.829 96.907 19.59 97.716 19.113 C 98.29 18.775 98.769 18.337 99.151 17.8 L 99.151 19.59 L 101.954 19.59 C 101.834 19.287 101.754 18.857 101.71 18.301 C 101.665 17.744 101.643 17.089 101.643 16.337 Z M 98.405 15.535 C 98.101 16.07 97.683 16.489 97.149 16.793 C 96.615 17.096 96.006 17.248 95.325 17.248 C 94.687 17.248 94.101 17.093 93.567 16.783 C 93.033 16.472 92.611 16.048 92.299 15.513 C 91.988 14.978 91.832 14.386 91.832 13.735 C 91.832 13.084 91.988 12.513 92.299 11.978 C 92.611 11.443 93.036 11.021 93.578 10.71 C 94.119 10.4 94.709 10.243 95.347 10.243 C 95.985 10.243 96.615 10.4 97.149 10.71 C 97.683 11.021 98.101 11.44 98.405 11.968 C 98.709 12.496 98.862 13.092 98.862 13.757 C 98.862 14.422 98.709 15 98.405 15.535 Z M 115.516 5.19 C 114.293 4.511 112.931 4.171 111.433 4.171 C 109.935 4.171 108.556 4.511 107.34 5.19 C 106.124 5.87 105.162 6.81 104.459 8.01 C 103.753 9.21 103.402 10.533 103.402 11.978 C 103.402 13.424 103.753 14.787 104.459 15.98 C 105.162 17.173 106.124 18.113 107.34 18.8 C 108.556 19.486 109.92 19.829 111.433 19.829 C 112.946 19.829 114.293 19.486 115.516 18.8 C 116.74 18.113 117.702 17.173 118.408 15.98 C 119.111 14.787 119.464 13.453 119.464 11.978 C 119.464 10.504 119.111 9.21 118.408 8.01 C 117.702 6.81 116.74 5.87 115.516 5.19 Z M 115.806 14.571 C 115.367 15.344 114.758 15.954 113.98 16.402 C 113.201 16.851 112.353 17.075 111.433 17.075 C 110.514 17.075 109.646 16.851 108.875 16.402 C 108.104 15.954 107.495 15.344 107.051 14.571 C 106.606 13.797 106.383 12.933 106.383 11.978 C 106.383 11.024 106.606 10.186 107.051 9.419 C 107.495 8.653 108.104 8.046 108.875 7.598 C 109.646 7.149 110.499 6.925 111.433 6.925 C 112.368 6.925 113.198 7.149 113.969 7.598 C 114.741 8.046 115.349 8.653 115.794 9.419 C 116.239 10.186 116.461 11.039 116.461 11.978 C 116.461 12.918 116.242 13.797 115.806 14.571 Z" fill="var(--token-f9376adb-fe94-4614-8108-c32dbf90bd1c, rgba(35, 38, 43, 0.95)) /* {&quot;name&quot;:&quot;Uno&quot;} */"></path></svg>
